!!!COM: Fe/licien David
!!!CNT: Francais
!!!TXO: Francais
!!!OTL: Le Pirate
!!!LYR: Sylvain St. Etienne
!!!ENC: Jacob Pegg
!!!YOR: Romantic French Song 1830-1870, David Tunley, ed., New York: Garland Publishing, Inc., 1995
!!!ODT: 1843/
!!NB: Vocal melody and text only encoded.
!!NB: Only first strophe encoded.
**kern	**silbe
*clef G2	*
*k[f#]	*
*M6/8	*
=1	=1
2.r	.
=2	=2
4r	.
8r	.
{8dd	{Har-
8.ee	-di
16dd	pi-
=3	=3
4dd	-ra-
8b	-te,
8g	Sur
8.a	ma
16d	fre/-
=4	=4
4b	-ga-
8g	-te,
(8g	Nul
8a)	|
8b	sou-
=5	=5
4dd	-ci
8cc	n'al-
4a	-te\-
16b	-re
16cc	mes
=6	=6
4b}	jours;}
8r	.
{8dd	{Gai-
8.ee	-te/-
16dd	fo-
=7	=7
4dd	-li-
8b	-e
8g	Char-
8.b	-ment
16dd	ma
=8	=8
4.gg	vi-
8ff#	-e,
8ee	De
8dd	con-
=9	=9
8dd	-cert
4ee	a-
4dd	-vec
16b	les
16a	a-
=10	=10
4g}	-mours.}
8r	.
{4a	{Com-
8a	-me
=11	=11
4cc	l'aigle,
8b	au
8a	fort
(16bq	|
16aq	|
8g)	|
8f#	l'o-
=12	=12
4g	-ra-
8e	-ge,
8e	Ba-
8g	-lan-
8b	-ce
=13	=13
4ee	son
8ee	vol
4dd#	dans
8ee	les
=14	=14
4.ff#	airs,
8ff#	Quand
8ff#	le
8ee	vent
=15	=15
(8dd	gron-
8cc#)	|
8b	-de
(8cc#	sur
8dd)	|
8cc#	la
=16	=16
4f#	pla-
8f#	-ge,
8f#	J'aime
8b	a\
8a#	me
=17	=17
(8cc#	ber-
8b)	|
8ee	-cer
4dd	sur
8cc#	les
=18	=18
4b;}	mers.}
8r	.
4r	.
8r	.
*-	*-
